lib/brands/icons/google-merchant-center.svg

<svg xmlns="http://www.w3.org/2000/svg" fill="none" aria-hidden="true" viewBox="0 0 48 48"><g id="google-merchant-center-Icon" clip-path="url(#clip0_94_17859)"><g id="Group"><path id="Vector" fill="#518FF5" fill-rule="evenodd" d="M6 14.6295H41.9824V38.9929C41.9824 40.6489 40.6403 41.9912 38.9842 41.9912H8.99824C7.34231 41.9912 6 40.6483 6 38.9929V14.6295Z" clip-rule="evenodd"/><path id="Vector_2" fill="url(#paint0_linear_94_17859)" fill-rule="evenodd" d="M18.6953 31.8373L28.0398 23.2929L42.0002 37.2325L41.9937 38.9927C41.9875 40.6487 40.6404 41.9913 38.984 41.9913H28.894L18.6953 31.8373Z" clip-rule="evenodd"/><path id="Vector_3" fill="#4758B8" fill-rule="evenodd" d="M6 9.00725C6 7.35123 7.34214 6.00874 8.99824 6.00874H38.9842C40.6401 6.00874 41.9824 7.35105 41.9824 9.00725V14.6295H6V9.00725Z" clip-rule="evenodd"/><path id="Vector_4" fill="white" fill-rule="evenodd" d="M22.4917 10.1317H18.9304C18.2061 10.1317 17.6191 10.719 17.6191 11.4436C17.6191 12.1683 18.2062 12.7554 18.9304 12.7554H29.0516C29.7759 12.7554 30.3629 12.1681 30.3629 11.4436C30.3629 10.7189 29.7758 10.1317 29.0516 10.1317H25.4902V9.75694C25.4902 8.92854 24.8191 8.25764 23.991 8.25764C23.1628 8.25764 22.4917 8.92889 22.4917 9.75694V10.1317Z" clip-rule="evenodd"/><g id="Group_2"><g id="Vector_5" filter="url(#filter0_d_94_17859)"><path fill="black" d="M18.0614 23.6486C17.3095 23.6486 16.6998 23.0389 16.6998 22.2869C16.6998 21.535 17.3095 20.9253 18.0614 20.9253C18.8134 20.9253 19.4231 21.535 19.4231 22.2869C19.4231 23.0389 18.8134 23.6486 18.0614 23.6486ZM32.5883 27.8329L24.3657 19.6104C24.0368 19.2815 23.58 19.0805 23.0775 19.0805H16.6822C16.442 19.0797 16.2041 19.1263 15.982 19.2179C15.7599 19.3094 15.5582 19.444 15.3883 19.6138C15.2185 19.7836 15.0839 19.9854 14.9924 20.2075C14.9008 20.4295 14.8542 20.6675 14.855 20.9077V27.303C14.855 27.8055 15.056 28.2623 15.394 28.5912L23.6074 36.8138C23.9455 37.1427 24.4023 37.3528 24.9048 37.3528C25.4073 37.3528 25.8641 37.1427 26.193 36.8138L32.5883 30.4185C32.9263 30.0896 33.1273 29.6328 33.1273 29.1303C33.1273 28.6186 32.9172 28.1618 32.5883 27.8329V27.8329Z"/></g><path id="Vector_6" fill="white" d="M18.0614 23.6486C17.3095 23.6486 16.6998 23.0389 16.6998 22.2869C16.6998 21.535 17.3095 20.9253 18.0614 20.9253C18.8134 20.9253 19.4231 21.535 19.4231 22.2869C19.4231 23.0389 18.8134 23.6486 18.0614 23.6486ZM32.5883 27.8329L24.3657 19.6104C24.0368 19.2815 23.58 19.0805 23.0775 19.0805H16.6822C16.442 19.0797 16.2041 19.1263 15.982 19.2179C15.7599 19.3094 15.5582 19.444 15.3883 19.6138C15.2185 19.7836 15.0839 19.9854 14.9924 20.2075C14.9008 20.4295 14.8542 20.6675 14.855 20.9077V27.303C14.855 27.8055 15.056 28.2623 15.394 28.5912L23.6074 36.8138C23.9455 37.1427 24.4023 37.3528 24.9048 37.3528C25.4073 37.3528 25.8641 37.1427 26.193 36.8138L32.5883 30.4185C32.9263 30.0896 33.1273 29.6328 33.1273 29.1303C33.1273 28.6186 32.9172 28.1618 32.5883 27.8329V27.8329Z"/></g></g></g><defs><filter id="filter0_d_94_17859" width="176.886" height="176.886" x="-40.0498" y="-35.8244" color-interpolation-filters="sRGB" filterUnits="userSpaceOnUse"><feFlood flood-opacity="0" result="BackgroundImageFix"/><feColorMatrix in="SourceAlpha" result="hardAlpha" values="0 0 0 0 0 0 0 0 0 0 0 0 0 0 0 0 0 0 127 0"/><feOffset dx="24.4021" dy="24.4021"/><feGaussianBlur stdDeviation="39.6535"/><feColorMatrix values="0 0 0 0 0 0 0 0 0 0 0 0 0 0 0 0 0 0 0.16 0"/><feBlend in2="BackgroundImageFix" result="effect1_dropShadow_94_17859"/><feBlend in="SourceGraphic" in2="effect1_dropShadow_94_17859" result="shape"/></filter><linearGradient id="paint0_linear_94_17859" x1="42.0002" x2="23.7462" y1="41.9913" y2="19.2403" gradientUnits="userSpaceOnUse"><stop stop-color="#4385F5"/><stop offset="1" stop-color="#3569D3"/></linearGradient><clipPath id="clip0_94_17859"><rect width="48" height="48" fill="white"/></clipPath></defs></svg>

<svg xmlns="http://www.w3.org/2000/svg" fill="none" aria-hidden="true" viewBox="0 0 48 48"><g clip-path="url(#a)"><path fill="#518FF5" fill-rule="evenodd" d="M6 14.63h35.982v24.363a2.998 2.998 0 0 1-2.998 2.998H8.998A2.999 2.999 0 0 1 6 38.993V14.629Z" clip-rule="evenodd"/><path fill="url(#b)" fill-rule="evenodd" d="m18.695 31.837 9.345-8.544L42 37.233l-.006 1.76a3.012 3.012 0 0 1-3.01 2.998h-10.09L18.695 31.837Z" clip-rule="evenodd"/><path fill="#4758B8" fill-rule="evenodd" d="M6 9.007A2.998 2.998 0 0 1 8.998 6.01h29.986a2.998 2.998 0 0 1 2.998 2.998v5.623H6V9.006Z" clip-rule="evenodd"/><path fill="#fff" fill-rule="evenodd" d="M22.492 10.132H18.93a1.312 1.312 0 0 0 0 2.623h10.12a1.311 1.311 0 0 0 0-2.623h-3.56v-.375a1.499 1.499 0 1 0-3 0v.375Z" clip-rule="evenodd"/><g filter="url(#c)"><path fill="#000" d="M18.061 23.649a1.362 1.362 0 1 1 0-2.724 1.362 1.362 0 0 1 0 2.724Zm14.527 4.184-8.222-8.223a1.816 1.816 0 0 0-1.288-.53h-6.396a1.82 1.82 0 0 0-1.827 1.828v6.395c0 .502.201.96.539 1.288l8.213 8.223c.338.329.795.539 1.298.539.502 0 .96-.21 1.288-.54l6.395-6.395c.338-.328.54-.785.54-1.288 0-.511-.21-.968-.54-1.297Z"/></g><path fill="#fff" d="M18.061 23.649a1.362 1.362 0 1 1 0-2.724 1.362 1.362 0 0 1 0 2.724Zm14.527 4.184-8.222-8.223a1.816 1.816 0 0 0-1.288-.53h-6.396a1.82 1.82 0 0 0-1.827 1.828v6.395c0 .502.201.96.539 1.288l8.213 8.223c.338.329.795.539 1.298.539.502 0 .96-.21 1.288-.54l6.395-6.395c.338-.328.54-.785.54-1.288 0-.511-.21-.968-.54-1.297Z"/></g><defs><linearGradient id="b" x1="42" x2="23.746" y1="41.991" y2="19.24" gradientUnits="userSpaceOnUse"><stop stop-color="#4385F5"/><stop offset="1" stop-color="#3569D3"/></linearGradient><clipPath id="a"><path fill="#fff" d="M0 0h48v48H0z"/></clipPath><filter id="c" width="176.886" height="176.886" x="-40.05" y="-35.824" color-interpolation-filters="sRGB" filterUnits="userSpaceOnUse"><feFlood flood-opacity="0" result="BackgroundImageFix"/><feColorMatrix in="SourceAlpha" result="hardAlpha" values="0 0 0 0 0 0 0 0 0 0 0 0 0 0 0 0 0 0 127 0"/><feOffset dx="24.402" dy="24.402"/><feGaussianBlur stdDeviation="39.654"/><feColorMatrix values="0 0 0 0 0 0 0 0 0 0 0 0 0 0 0 0 0 0 0.16 0"/><feBlend in2="BackgroundImageFix" result="effect1_dropShadow_5_1852"/><feBlend in="SourceGraphic" in2="effect1_dropShadow_5_1852" result="shape"/></filter></defs></svg>
